resources/engines/wiktionary.svg

<svg xmlns="http://www.w3.org/2000/svg" width="16" height="16" fill="#f4f4f7" fill-opacity="context-fill-opacity">
    <path d="M14 0H2a2 2 0 0 0-2 2v12a2 2 0 0 0 2 2h12a2 2 0 0 0 2-2V2a2 2 0 0 0-2-2zM3.333 13.133H1V2.867h2.333v.929H1.929v8.407h1.404v.93zm.444-7.494-.211.988-.105.478-.294.066-.172-.044c-.244-1.214-.367-1.843-.367-1.888 0-.148.068-.288.203-.419.136-.131.316-.197.542-.197.116 0 .208.011.281.033a.28.28 0 0 1 .155.102.384.384 0 0 1 .06.13c.01.041.014.093.014.156 0 .053-.036.251-.106.595zm6.334 6.063L8.714 6.811 7.31 11.702H6.052L4.353 5.735H5.42l1.333 4.657 1.328-4.657H9.34l1.333 4.657 1.328-4.657h1.067l-1.699 5.968h-1.258zM15 13.134h-2.333v-.929h1.404V3.797h-1.404v-.93H15v10.267z"/>
</svg>

<svg xmlns="http://www.w3.org/2000/svg" viewBox="0 0 16 16" width="16" height="16" fill="#f4f4f7"
	fill-opacity="context-fill-opacity">
	<path d="M14,0H2C0.895,0,0,0.895,0,2v12c0,1.105,0.895,2,2,2h12c1.105,0,2-0.895,2-2V2C16,0.895,15.105,0,14,0z M3.333,13.133H1
	V2.867h2.333v0.929H1.929v8.407h1.404V13.133z M3.777,5.639L3.566,6.627L3.461,7.105L3.167,7.171L2.995,7.127
	C2.751,5.913,2.628,5.284,2.628,5.239c0-0.148,0.068-0.288,0.203-0.419c0.136-0.131,0.316-0.197,0.542-0.197
	c0.116,0,0.208,0.011,0.281,0.033c0.072,0.022,0.123,0.056,0.155,0.102c0.031,0.046,0.051,0.089,0.06,0.13
	c0.01,0.041,0.014,0.093,0.014,0.156C3.883,5.097,3.847,5.295,3.777,5.639z M10.111,11.702L8.714,6.811L7.31,11.702H6.052
	L4.353,5.735H5.42l1.333,4.657l1.328-4.657H9.34l1.333,4.657l1.328-4.657h1.067l-1.699,5.968H10.111z M15,13.134h-2.333v-0.929
	h1.404V3.797h-1.404V2.867H15V13.134z" />
</svg>
